X: 10322
T: MOZART'S WALTZ
C:
%R: waltz
B: Elias Howe "The Musician's Companion" Part 1 1842 p.32 #2
S: http://imslp.org/wiki/The_Musician's_Companion_(Howe,_Elias)
Z: 2015 John Chambers <jc:trillian.mit.edu>
M: 3/8
L: 1/16
K: D
% - - - - - - - - - - - - - - - - - - - - - - - - -
A2 |\
f4 ge | dfbafd | ceagec | dABcde |\
f4 ge | dfbafd | ceagec | d4 ::\
fd |\
ceagec | dfbafd | ceagec |
dABcde |\
f4 ge | dfbafd | ceagec | d4 :: Bc |\
d3edc | Bdgdbg | fdafc'f | gbagfe |\
d3edc | Bdgdbd | fdafc'f | "^D.C."g4 :|
% - - - - - - - - - - - - - - - - - - - - - - - - -


